icons/svg/24x24/image/outline.svg

<svg width="24" height="24" fill="none" xmlns="http://www.w3.org/2000/svg">
  <path fill-rule="evenodd" clip-rule="evenodd" d="M8 9a2 2 0 114.001.001A2 2 0 018 9zm4 11c-4.05 0-6.127-.507-7.138-2.397l3.044-2.283 1.387 1.387c.361.361.936.391 1.332.074l4.362-3.49 4.427 3.689C18.531 19.386 16.462 20 12 20zm0-16c6.654 0 8 1.346 8 8 0 1.053-.039 1.959-.122 2.762l-4.237-3.531a1.004 1.004 0 00-1.266-.012l-4.301 3.441-1.367-1.367A.997.997 0 007.4 13.2l-3.169 2.377C4.068 14.599 4 13.428 4 12c0-6.654 1.346-8 8-8zm0-2C4.215 2 2 4.215 2 12s2.215 10 10 10 10-2.215 10-10S19.785 2 12 2z" fill="#000"/>
</svg>

<svg xmlns="http://www.w3.org/2000/svg" width="24" height="24" viewBox="0 0 24 24">
  <path fill-rule="evenodd" d="M8,9 C8,7.896 8.896,7 10,7 C11.104,7 12,7.896 12,9 C12,10.104 11.104,11 10,11 C8.896,11 8,10.104 8,9 M12,20 C7.95,20 5.873,19.493 4.862,17.603 L7.906,15.32 L9.293,16.707 C9.654,17.068 10.229,17.098 10.625,16.781 L14.987,13.291 L19.414,16.98 C18.531,19.386 16.462,20 12,20 M12,4 C18.654,4 20,5.346 20,12 C20,13.053 19.961,13.959 19.878,14.762 L15.641,11.231 C15.275,10.928 14.746,10.923 14.375,11.219 L10.074,14.66 L8.707,13.293 C8.355,12.94 7.798,12.9 7.4,13.2 L4.231,15.577 C4.068,14.599 4,13.428 4,12 C4,5.346 5.346,4 12,4 M12,2 C4.215,2 2,4.215 2,12 C2,19.785 4.215,22 12,22 C19.785,22 22,19.785 22,12 C22,4.215 19.785,2 12,2"/>
</svg>
